X:2694
T:Carr\'ee de Vouvray
R:Bourr\'ee
O:France
M:C
C:Gilles Chabenat
K:Em
D>E FGA4|G>A _BG A>G FE|D>E FGA4|G>A GFE4:|\
|:d>F GA c>=B AG|FE FG A/2G/2A/2B/2 A2|\
d>F GA c>B AG|Fd FED4:|



Xiraldilla/Tonada
C:Tradicional
S:Música Tradicional Asturiana, (C) Tello & Tito. Asturies, 2001.
S:http://pagina.de/MusTradAst <telloytito@asturies.org>
A:Asturies
Z:Les cuarenta principales
M:3/4
L:1/8
Q:3/4=15
K:Cm
|GG/G/ c2 c>=B|c(3d/e/d/ c4|BA/G/ F2 B>A|[1 cB/>A/ G4 :|[2 cB/>A/ G2 C=E/F/|
|GA/G/ F2 G>E|FE/>D/ C2 C=E/F/|GA/G/ F2 G>E|FE/D/ C4|



